X:1
T:Blue Mountain
M:3/4
L:1/2
K:C
 E/2| G E/2| G E/2| D/2 C-| C G/2| c G/2| A c/2| G3/2-| G G/2| e d/2|\
 c A/2| G A/2| E C/4E/4| G A/2| E D/2| C3/2-| C E/2| E/2 G3/4 E/4|\
 G E/2| C3/2-| C C/2| F/2 A3/4 F/4| A F/2| G3/2-| G G/2| G/2 e3/4 d/4|\
 c A/2| G A/2| E C/4D/4| G A/2| E D/2| C3/2-| C||
